X: 10922
T: GENERAL GARIBALDI -- Strathspey
C: By J.F. Fettes, D.M.
R: strathspey
B: K\"ohler's Violin Repository, v.1, 1885 p.92 #2
F: http://www.archive.org/details/klersviolinrepos01edin
Z: 2012 John Chambers <jc:trillian.mit.edu>
M: C|
L: 1/8
K: D
uA, |\
D2(.F>.A) (.d>.c) (d/c/B/A/) | (3Bcd (3AGF (G/F/E/D/) (E<F) |\
D2(.F>.A) (.d>.c) (d/c/B/A/) | (3Bcd (3ABc d<(D"^>"D>A,) |
D2(.F>.A) (.d>.c) (d/c/B/A/) | (3Bcd (3AGF (G/F/E/D/) (E<F) |\
(3A,DF (3AFD (3CEG (3BGE | (3ABd (3efg f<d d |]
uf |\
(A<d) (.f>.d) (.a>.d)(.f>.d) | (.g>.f)(.e>.d) c<(e"^>"e<f) |\
(A<d)(.f>.d) (.a>.d)(.f>.d) | (3gfe (3Bge f<(d"^>"d<f) |
(A<d)(.f>.d) (.a>.d)(.f>.d) | (.g>.f)(.e>.d) (3ced (3cBA |\
(3BGB (3edc (3cAc (3agf & B<G e<d c<A a<f | (3gfe (3Bge "_Segue Reel."f<d d |]

%%sep 2 1 500

